images/client03.svg

<svg fill="none" height="200" viewBox="0 0 200 200" width="200" xmlns="http://www.w3.org/2000/svg"><path d="m34.6011 123.876c-9.1303-.114-16.6011-.434-16.6011-.71 0-.847 63.9964-1.412 115.151-1.016 26.65.206 48.586.505 48.744.665.159.159.134.446-.055.636-.39.393-121.8374.743-147.2385.425zm-2.1654-10.417c0-.245.4948-.984 1.0995-1.644.6047-.659 3.0922-6.296 5.5278-12.5263 5.0497-12.9169 6.365-15.4409 9.3959-18.03l2.166-1.8502-5.4869.3302c-6.272.3774-9.9664 1.495-12.2645 3.71-1.7478 1.6845-2.8218 4.6813-2.3409 6.5316.4236 1.6295-.7305 1.4836-2.5224-.3191-2.1218-2.1345-1.5901-5.0302 1.4508-7.9019 3.8034-3.5917 6.3945-4.0877 23.4736-4.4934 8.2573-.1962 15.1009-.3089 15.2078-.2505.1069.0585-.5304.5846-1.4163 1.1693-1.2054.7955-2.9977 1.1122-7.1237 1.2587-4.9855.1771-5.6627.3382-7.0787 1.6846-1.625 1.5453-4.9016 8.9221-9.0991 20.484-2.3864 6.574-4.3033 9.936-6.2484 10.961-1.488.784-4.7403 1.392-4.7403.886zm49.0814.069c0-.225.4774-1.103 1.0609-1.951s1.2056-1.934 1.3825-2.413c.1769-.48.8624-2.237 1.5234-3.907l1.2016-3.035-2.5977 1.995c-4.4388 3.409-9.1979 4.142-11.5469 1.778-2.4764-2.491-1.5011-7.9372 2.3753-13.2629 4.3489-5.9751 12.3754-8.1825 12.3754-3.4028 0 2.1928-3.2662 5.9211-7.4794 8.5369-3.5155 2.1828-4.555 4.0708-3.418 6.2088.6903 1.297 1.9286 1.276 4.8342-.084 3.6138-1.691 6.932-5.5955 8.6221-10.1449.8155-2.1946 1.4827-4.0716 1.4827-4.171 0-.0995-.5846-.2909-1.2992-.4253-1.2019-.2261-1.1634-.3021.5134-1.0149.997-.4237 2.2675-1.5736 2.8233-2.5552 3.1128-5.4976 7.2533-7.9763 13.9423-8.3458 4.469-.2468 4.799-.1811 6.207 1.2357.818.823 1.488 1.7897 1.488 2.1483 0 .8949-3.204 4.048-4.114 4.048-.573 0-.583-.1549-.044-.697.381-.3834.693-1.423.693-2.3102 0-3.5142-5.331-4.4391-9.28-1.6101-1.638 1.1729-5.1557 5.9496-5.1557 6.9998 0 .2268 2.5984.2683 5.7747.0923 6.128-.3397 7.302.1857 4.117 1.8425-4.66 2.4244-9.131 15.3768-5.488 15.8998 2.76.396 7.723-8.4811 7.723-13.8132 0-1.5448.198-1.6525 5.196-2.8252 6.296-1.4773 7.168-1.2724 6.762 1.5909-.163 1.1503-.491 2.5806-.73 3.1784-.239.5979.785-.2241 2.275-1.8266 3.02-3.2484 5.404-4.5071 7.523-3.9721 2.796.7059 2.535 2.2324-2.196 12.8438-1.317 2.955-2.074 5.547-2.078 7.117-.008 2.847-.619 3.067-2.702.972-2-2.012-1.662-4.705 1.463-11.6506 1.313-2.9176 2.387-5.597 2.387-5.9542 0-2.6484-5.82 4.114-9.528 11.0698-2.651 4.975-3.04 5.432-4.764 5.599-1.032.101-1.876-.012-1.876-.25s1.299-3.786 2.887-7.8858c3.415-8.8151 3.571-9.9502 1.299-9.4036-2.253.5417-2.454.7174-2.454 2.1434-.001 1.6322-2.972 7.9618-4.982 10.613-3.114 4.108-8.2554 5.962-11.0576 3.988-2.9292-2.064-.7691-10.7248 3.7816-15.1629l2.289-2.2316-3.3435.1946-3.343.1945-2.4171 6.7762c-3.3409 9.3662-5.9879 14.9462-7.5833 15.9842-1.5815 1.03-4.5256 1.847-4.5256 1.256zm.1076-19.2691c2.1639-2.3025 3.0521-4.7768 1.8776-5.2302-1.6369-.6319-4.9696 3.5303-6.3084 7.8782l-.4292 1.3941 1.6543-1.1958c.9099-.6577 2.3524-1.9386 3.2056-2.8464zm-17.6416 14.2811c-1.1958-.946-1.5215-1.707-1.5215-3.554v-2.351l-2.0212 1.551c-4.5776 3.513-8.6649 4.155-11.0659 1.739-1.3417-1.349-1.4483-1.781-1.0976-4.441.9249-7.0133 6.2772-13.4108 12.2704-14.6661 1.4184-.2971 2.1067-.116 3.0092.792.9849.9909 1.0755 1.4505.5721 2.9033-.7389 2.1323-5.3068 6.5061-8.5142 8.1518-2.1898 1.1239-2.3917 1.42-2.3917 3.505 0 1.253.2331 2.422.5181 2.6 1.3777.856 4.5406-.621 7.2854-3.404 2.3883-2.4205 3.6344-4.5588 6.9465-11.9188 3.8012-8.448 4.1477-8.9987 5.955-9.4704 1.0562-.2754 2.1414-.4215 2.4116-.3249.2702.0967-1.4141 4.5307-3.743 9.8538-5.0175 11.4683-6.2512 15.0233-6.2512 18.0133 0 2.559-.2719 2.676-2.3631 1.022zm-6.0959-13.5811c2.6804-2.5552 3.7967-4.8184 2.8477-5.7731-.4348-.4374-.9061-.4357-1.6094.0059-2.2549 1.4156-6.5579 9.6859-4.4108 8.4771.4429-.2494 1.8705-1.4689 3.1725-2.71zm108.2508 13.5391c-1.323-1.046-1.541-1.603-1.362-3.485.117-1.232.01-2.24-.236-2.24-.247 0-.448.26-.448.578 0 1.143-4.773 4.07-6.638 4.07-2.016 0-3.756-1.481-3.756-3.197 0-1.006-.081-.998-1.299.123-3.604 3.315-8.198 4.029-10.57 1.642l-1.423-1.431-2.096 1.431c-2.432 1.661-5.465 1.864-6.861.459-1.388-1.396-.846-3.755 2.644-11.5238 2.971-6.6124 2.984-6.6298 5.373-7.1317 1.317-.2768 2.481-.4392 2.587-.361s-1.258 3.393-3.031 7.3663c-3.338 7.4782-3.876 9.7182-2.335 9.7182 1.369 0 4.307-2.419 4.307-3.546 0-1.7351 2.295-6.4813 4.358-9.0146 2.363-2.9009 6.11-4.8661 9.279-4.8661 3.816 0 4.946 2.4037 2.165 4.605-1.859 1.4712-2.785 1.5489-2.23.1874 1.285-3.15-.643-4.0327-3.289-1.5059-4.91 4.6888-7.323 15.6362-3.174 14.4002 2.82-.84 5.522-3.331 7.346-6.7742 3.95-7.4564 8.116-10.4922 14.51-10.5735 2.115-.0269 4.037.1417 4.27.3747.233.2329-.246 1.9321-1.065 3.7758-2.491 5.6082-4.574 12.4912-4.66 15.4042-.045 1.517-.242 2.76-.437 2.76-.196 0-1.064-.56-1.93-1.245zm-3.607-6.012c1.903-1.971 7.661-12.9382 7.094-13.5092-.674-.6774-3.592.6668-5.214 2.4015-2.271 2.4295-4.731 7.0068-5.418 10.0827-.845 3.783.5 4.173 3.538 1.026zm-20.816-18.706c-.988-.3738-.911-2.7805.116-3.6384 1.307-1.0911 2.915-.4976 2.915 1.0757 0 1.4651-1.834 3.0157-3.031 2.5628z" fill="#fff"/></svg>

<svg width="200" height="200" viewBox="0 0 200 200" fill="none" xmlns="http://www.w3.org/2000/svg">
<path d="M34.6011 123.876C25.4708 123.762 18 123.442 18 123.166C18 122.319 81.9964 121.754 133.151 122.15C159.801 122.356 181.737 122.655 181.895 122.815C182.054 122.974 182.029 123.261 181.84 123.451C181.45 123.844 60.0026 124.194 34.6015 123.876L34.6011 123.876ZM32.4357 113.459C32.4357 113.214 32.9305 112.475 33.5352 111.815C34.1399 111.156 36.6274 105.519 39.063 99.2887C44.1127 86.3718 45.428 83.8478 48.4589 81.2587L50.6249 79.4085L45.138 79.7387C38.866 80.1161 35.1716 81.2337 32.8735 83.4487C31.1257 85.1332 30.0517 88.13 30.5326 89.9803C30.9562 91.6098 29.8021 91.4639 28.0102 89.6612C25.8884 87.5267 26.4201 84.631 29.461 81.7593C33.2644 78.1676 35.8555 77.6716 52.9346 77.2659C61.1919 77.0697 68.0355 76.957 68.1424 77.0154C68.2493 77.0739 67.612 77.6 66.7261 78.1847C65.5207 78.9802 63.7284 79.2969 59.6024 79.4434C54.6169 79.6205 53.9397 79.7816 52.5237 81.128C50.8987 82.6733 47.6221 90.0501 43.4246 101.612C41.0382 108.186 39.1213 111.548 37.1762 112.573C35.6882 113.357 32.4359 113.965 32.4359 113.459L32.4357 113.459ZM81.5171 113.528C81.5171 113.303 81.9945 112.425 82.578 111.577C83.1615 110.729 83.7836 109.643 83.9605 109.164C84.1374 108.684 84.8229 106.927 85.4839 105.257L86.6855 102.222L84.0878 104.217C79.649 107.626 74.8899 108.359 72.5409 105.995C70.0645 103.504 71.0398 98.0578 74.9162 92.7321C79.2651 86.757 87.2916 84.5496 87.2916 89.3293C87.2916 91.5221 84.0254 95.2504 79.8122 97.8662C76.2967 100.049 75.2572 101.937 76.3942 104.075C77.0845 105.372 78.3228 105.351 81.2284 103.991C84.8422 102.3 88.1604 98.3955 89.8505 93.8461C90.666 91.6515 91.3332 89.7745 91.3332 89.6751C91.3332 89.5756 90.7486 89.3842 90.034 89.2498C88.8321 89.0237 88.8706 88.9477 90.5474 88.2349C91.5444 87.8112 92.8149 86.6613 93.3707 85.6797C96.4835 80.1821 100.624 77.7034 107.313 77.3339C111.782 77.0871 112.112 77.1528 113.52 78.5696C114.338 79.3926 115.008 80.3593 115.008 80.7179C115.008 81.6128 111.804 84.7659 110.894 84.7659C110.321 84.7659 110.311 84.611 110.85 84.0689C111.231 83.6855 111.543 82.6459 111.543 81.7587C111.543 78.2445 106.212 77.3196 102.263 80.1486C100.625 81.3215 97.1073 86.0982 97.1073 87.1484C97.1073 87.3752 99.7057 87.4167 102.882 87.2407C109.01 86.901 110.184 87.4264 106.999 89.0832C102.339 91.5076 97.868 104.46 101.511 104.983C104.271 105.379 109.234 96.5019 109.234 91.1698C109.234 89.625 109.432 89.5173 114.43 88.3446C120.726 86.8673 121.598 87.0722 121.192 89.9355C121.029 91.0858 120.701 92.5161 120.462 93.1139C120.223 93.7118 121.247 92.8898 122.737 91.2873C125.757 88.0389 128.141 86.7802 130.26 87.3152C133.056 88.0211 132.795 89.5476 128.064 100.159C126.747 103.114 125.99 105.706 125.986 107.276C125.978 110.123 125.367 110.343 123.284 108.248C121.284 106.236 121.622 103.543 124.747 96.5974C126.06 93.6798 127.134 91.0004 127.134 90.6432C127.134 87.9948 121.314 94.7572 117.606 101.713C114.955 106.688 114.566 107.145 112.842 107.312C111.81 107.413 110.966 107.3 110.966 107.062C110.966 106.824 112.265 103.276 113.853 99.1762C117.268 90.3611 117.424 89.226 115.152 89.7726C112.899 90.3143 112.698 90.49 112.698 91.916C112.697 93.5482 109.726 99.8778 107.716 102.529C104.602 106.637 99.4606 108.491 96.6584 106.517C93.7292 104.453 95.8893 95.7922 100.44 91.3541L102.729 89.1225L99.3855 89.3171L96.0425 89.5116L93.6254 96.2878C90.2845 105.654 87.6375 111.234 86.0421 112.272C84.4606 113.302 81.5165 114.119 81.5165 113.528L81.5171 113.528ZM81.6247 94.2589C83.7886 91.9564 84.6768 89.4821 83.5023 89.0287C81.8654 88.3968 78.5327 92.559 77.1939 96.9069L76.7647 98.301L78.419 97.1052C79.3289 96.4475 80.7714 95.1666 81.6246 94.2588L81.6247 94.2589ZM63.9831 108.54C62.7873 107.594 62.4616 106.833 62.4616 104.986V102.635L60.4404 104.186C55.8628 107.699 51.7755 108.341 49.3745 105.925C48.0328 104.576 47.9262 104.144 48.2769 101.484C49.2018 94.4707 54.5541 88.0732 60.5473 86.8179C61.9657 86.5208 62.654 86.7019 63.5565 87.6099C64.5414 88.6008 64.632 89.0604 64.1286 90.5132C63.3897 92.6455 58.8218 97.0193 55.6144 98.665C53.4246 99.7889 53.2227 100.085 53.2227 102.17C53.2227 103.423 53.4558 104.592 53.7408 104.77C55.1185 105.626 58.2814 104.149 61.0262 101.366C63.4145 98.9455 64.6606 96.8072 67.9727 89.4472C71.7739 80.9992 72.1204 80.4485 73.9277 79.9768C74.9839 79.7014 76.0691 79.5553 76.3393 79.6519C76.6095 79.7486 74.9252 84.1826 72.5963 89.5057C67.5788 100.974 66.3451 104.529 66.3451 107.519C66.3451 110.078 66.0732 110.195 63.982 108.541L63.9831 108.54ZM57.8872 94.9589C60.5676 92.4037 61.6839 90.1405 60.7349 89.1858C60.3001 88.7484 59.8288 88.7501 59.1255 89.1917C56.8706 90.6073 52.5676 98.8776 54.7147 97.6688C55.1576 97.4194 56.5852 96.1999 57.8872 94.9588L57.8872 94.9589ZM166.138 108.498C164.815 107.452 164.597 106.895 164.776 105.013C164.893 103.781 164.786 102.773 164.54 102.773C164.293 102.773 164.092 103.033 164.092 103.351C164.092 104.494 159.319 107.421 157.454 107.421C155.438 107.421 153.698 105.94 153.698 104.224C153.698 103.218 153.617 103.226 152.399 104.347C148.795 107.662 144.201 108.376 141.829 105.989L140.406 104.558L138.31 105.989C135.878 107.65 132.845 107.853 131.449 106.448C130.061 105.052 130.603 102.693 134.093 94.9242C137.064 88.3118 137.077 88.2944 139.466 87.7925C140.783 87.5157 141.947 87.3533 142.053 87.4315C142.159 87.5097 140.795 90.8245 139.022 94.7978C135.684 102.276 135.146 104.516 136.687 104.516C138.056 104.516 140.994 102.097 140.994 100.97C140.994 99.2349 143.289 94.4887 145.352 91.9554C147.715 89.0545 151.462 87.0893 154.631 87.0893C158.447 87.0893 159.577 89.493 156.796 91.6943C154.937 93.1655 154.011 93.2432 154.566 91.8817C155.851 88.7317 153.923 87.849 151.277 90.3758C146.367 95.0646 143.954 106.012 148.103 104.776C150.923 103.936 153.625 101.445 155.449 98.0018C159.399 90.5454 163.565 87.5096 169.959 87.4283C172.074 87.4014 173.996 87.57 174.229 87.803C174.462 88.0359 173.983 89.7351 173.164 91.5788C170.673 97.187 168.59 104.07 168.504 106.983C168.459 108.5 168.262 109.743 168.067 109.743C167.871 109.743 167.003 109.183 166.137 108.498L166.138 108.498ZM162.531 102.486C164.434 100.515 170.192 89.5478 169.625 88.9768C168.951 88.2994 166.033 89.6436 164.411 91.3783C162.14 93.8078 159.68 98.3851 158.993 101.461C158.148 105.244 159.493 105.634 162.531 102.487L162.531 102.486ZM141.715 83.78C140.727 83.4062 140.804 80.9995 141.831 80.1416C143.138 79.0505 144.746 79.644 144.746 81.2173C144.746 82.6824 142.912 84.233 141.715 83.7801L141.715 83.78Z" fill="white"/>
</svg>
